packages/web-icons/svgs/push_1.svg

<svg viewBox="0 0 38 50" xmlns="http://www.w3.org/2000/svg" class="ridi_icon"><path d="M25.7 9.8H12.3c-1.6 0-2.9 1.3-2.9 2.9v24.7c0 1.6 1.3 2.9 2.9 2.9h13.3c1.6 0 2.9-1.3 2.9-2.9V12.6c0-1.5-1.3-2.8-2.8-2.8zm-10.5 1.4h7.6v1h-7.6v-1zM19 38.3c-1 0-1.9-.9-1.9-1.9 0-1.1.9-1.9 1.9-1.9 1 0 1.9.8 1.9 1.9 0 1.1-.9 1.9-1.9 1.9zm7.6-5.7H11.4v-19h15.2v19zm4.7-19.5c-.7 0-1.3-.6-1.3-1.3 0-2-1.7-3.8-3.8-3.8-.7 0-1.2-.5-1.2-1.2s.6-1.3 1.3-1.3c3.5 0 6.3 2.8 6.3 6.3 0 .8-.6 1.3-1.3 1.3"/><path d="M35.8 13c-.7 0-1.3-.6-1.3-1.3 0-4.5-3.7-8.2-8.2-8.2-.7 0-1.3-.6-1.3-1.3 0-.7.6-1.3 1.3-1.3 5.9 0 10.8 4.8 10.8 10.8 0 .8-.6 1.3-1.3 1.3M6.7 36.9c.7 0 1.3.6 1.3 1.3 0 2 1.7 3.8 3.8 3.8.7 0 1.3.6 1.3 1.3 0 .7-.6 1.3-1.3 1.3-3.5 0-6.3-2.8-6.3-6.3-.1-.9.5-1.4 1.2-1.4"/><path d="M2.2 37c.7 0 1.3.6 1.3 1.3 0 4.5 3.7 8.2 8.2 8.2.7 0 1.3.6 1.3 1.3 0 .7-.6 1.3-1.3 1.3C5.7 49 .9 44.2.9 38.2c0-.7.6-1.2 1.3-1.2"/></svg>

<?xml version="1.0" encoding="UTF-8"?>
<svg width="38px" height="50px" viewBox="0 0 38 50" version="1.1" xmlns="http://www.w3.org/2000/svg">
  <!-- Generator: Sketch 41.2 (35397) - http://www.bohemiancoding.com/sketch -->
  <title>push_1</title>
  <desc>Created with Sketch.</desc>
  <defs></defs>
  <g id="Page-1" stroke="none" stroke-width="1" fill="none" fill-rule="evenodd">
    <g id="push_1" fill="#000000">
      <g id="레이어_1">
        <path d="M25.7,9.8 L12.3,9.8 C10.7,9.8 9.4,11.1 9.4,12.7 L9.4,37.4 C9.4,39 10.7,40.3 12.3,40.3 L25.6,40.3 C27.2,40.3 28.5,39 28.5,37.4 L28.5,12.6 C28.5,11.1 27.2,9.8 25.7,9.8 L25.7,9.8 Z M15.2,11.2 L22.8,11.2 L22.8,12.2 L15.2,12.2 C15.2,12.2 15.2,11.2 15.2,11.2 Z M19,38.3 C18,38.3 17.1,37.4 17.1,36.4 C17.1,35.3 18,34.5 19,34.5 C20,34.5 20.9,35.3 20.9,36.4 C20.9,37.5 20,38.3 19,38.3 L19,38.3 Z M26.6,32.6 L11.4,32.6 L11.4,13.6 L26.6,13.6 L26.6,32.6 Z" id="Shape"></path>
        <path d="M31.3,13.1 C30.6,13.1 30,12.5 30,11.8 C30,9.8 28.3,8 26.2,8 C25.5,8 25,7.5 25,6.8 C25,6.1 25.6,5.5 26.3,5.5 C29.8,5.5 32.6,8.3 32.6,11.8 C32.6,12.6 32,13.1 31.3,13.1" id="Shape"></path>
        <path d="M35.8,13 C35.1,13 34.5,12.4 34.5,11.7 C34.5,7.2 30.8,3.5 26.3,3.5 C25.6,3.5 25,2.9 25,2.2 C25,1.5 25.6,0.9 26.3,0.9 C32.2,0.9 37.1,5.7 37.1,11.7 C37.1,12.5 36.5,13 35.8,13" id="Shape"></path>
        <path d="M6.7,36.9 C7.4,36.9 8,37.5 8,38.2 C8,40.2 9.7,42 11.8,42 C12.5,42 13.1,42.6 13.1,43.3 C13.1,44 12.5,44.6 11.8,44.6 C8.3,44.6 5.5,41.8 5.5,38.3 C5.4,37.4 6,36.9 6.7,36.9" id="Shape"></path>
        <path d="M2.2,37 C2.9,37 3.5,37.6 3.5,38.3 C3.5,42.8 7.2,46.5 11.7,46.5 C12.4,46.5 13,47.1 13,47.8 C13,48.5 12.4,49.1 11.7,49.1 C5.7,49 0.9,44.2 0.9,38.2 C0.9,37.5 1.5,37 2.2,37" id="Shape"></path>
      </g>
    </g>
  </g>
</svg>
